icons/linear-new-office-doc-document-lock.svg

<svg xmlns="http://www.w3.org/2000/svg" width="32px" height="32px" viewBox="0 0 32 32" version="1.1">
    <title>linear-new-office-doc-document-lock</title>
    <g id="linear-new-office-doc-document-lock" stroke-width="1" fill-rule="evenodd">
        <path d="M23,17 C25.209139,17 27,18.790861 27,21 L27,22 L28,22 C28.5522847,22 29,22.4477153 29,23 L29,29 C29,29.5522847 28.5522847,30 28,30 L18,30 C17.4477153,30 17,29.5522847 17,29 L17,23 C17,22.4477153 17.4477153,22 18,22 L19,22 L19,21 C19,18.790861 20.790861,17 23,17 Z M27,2 C27.5522847,2 28,2.44771525 28,3 L28.0015944,17.6846041 C26.9268966,16.0665636 25.088003,15 23,15 L22.7750617,15.0041385 C19.944991,15.1084444 17.6155883,17.1728422 17.104389,19.8797964 L17.06,20.151 L16.9882237,20.1748959 C15.8291869,20.5900389 15,21.6981859 15,23 L15,30 L5,30 C4.44771525,30 4,29.5522847 4,29 L4,3 C4,2.44771525 4.44771525,2 5,2 L27,2 Z M23,19 C21.8954305,19 21,19.8954305 21,21 L21,22 L25,22 L25,21 C25,19.8954305 24.1045695,19 23,19 Z M15,14 L11,14 C10.4477153,14 10,14.4477153 10,15 C10,15.5522847 10.4477153,16 11,16 L15,16 C15.5522847,16 16,15.5522847 16,15 C16,14.4477153 15.5522847,14 15,14 Z M21,8 L11,8 C10.4477153,8 10,8.44771525 10,9 C10,9.55228475 10.4477153,10 11,10 L21,10 C21.5522847,10 22,9.55228475 22,9 C22,8.44771525 21.5522847,8 21,8 Z" id="&#24418;&#29366;" />
    </g>
</svg>

<svg xmlns="http://www.w3.org/2000/svg" viewBox="0 0 32 32"><path fill="currentColor" d="M23 17a4 4 0 0 1 4 4v1h1a1 1 0 0 1 1 1v6a1 1 0 0 1-1 1H18a1 1 0 0 1-1-1v-6a1 1 0 0 1 1-1h1v-1a4 4 0 0 1 4-4m4-15a1 1 0 0 1 1 1l.002 14.685A5.994 5.994 0 0 0 23 15l-.225.004a6.002 6.002 0 0 0-5.67 4.876l-.045.271-.072.024A3.001 3.001 0 0 0 15 23v7H5a1 1 0 0 1-1-1V3a1 1 0 0 1 1-1zm-4 17a2 2 0 0 0-2 2v1h4v-1a2 2 0 0 0-2-2m-8-5h-4a1 1 0 0 0 0 2h4a1 1 0 0 0 0-2m6-6H11a1 1 0 0 0 0 2h10a1 1 0 0 0 0-2"/></svg>
